X: 43613
T: Yr Hen Gythraul
R: slip jig
M: 9/8
K: Edorian
|:[M:5/8] cB cB^A|B^A BAG|[M:7/8] FGG EG EG|FGG ^AG F2:|
|:[M:5/8] EB GEE|ED E^AB|[M:7/8] ^ABB AG AG|^ABB AG F2:|
|:[M:5/8] Ec dcd|f^a gff|[M:7/8] ecd ec dc|B^AA BG F2:|

